my_site/img/clients/fa-brands_aws.svg

<svg width="105" height="63" viewBox="0 0 105 63" fill="none" xmlns="http://www.w3.org/2000/svg">
<g clip-path="url(#clip0)">
<path d="M29.8868 22.9887C29.7701 26.6268 31.6039 28.2378 31.6492 29.261C31.6277 29.4692 31.5561 29.6693 31.4405 29.8445C31.325 30.0197 31.1688 30.165 30.9851 30.2681L28.9116 31.7072C28.6432 31.8938 28.3269 32.0007 27.9995 32.0156C27.9299 32.0124 26.6728 32.3096 24.6819 27.9021C23.4672 29.4055 21.9218 30.6133 20.1638 31.4332C18.4058 32.2531 16.482 32.6633 14.5395 32.6324C11.9022 32.7754 4.75504 31.1483 5.12277 23.6039C4.8652 17.4553 10.6403 13.6357 16.613 13.9585C17.7631 13.9618 20.1121 14.018 24.2251 14.9656V12.4567C24.6608 8.20668 21.8438 4.90911 16.9661 5.40383C16.5773 5.40543 13.8235 5.32352 9.54034 7.02771C8.34806 7.57061 8.19579 7.48067 7.79891 7.48067C6.59853 7.48067 7.09261 4.03051 7.32264 3.59362C8.16663 2.56564 13.1317 0.646211 18.0045 0.673517C21.2626 0.387814 24.5032 1.38483 27.0259 3.44906C28.0514 4.5864 28.8338 5.91801 29.3257 7.3635C29.8177 8.80898 30.0091 10.3383 29.8884 11.8592L29.8868 22.9887ZM15.8873 28.1912C21.1407 28.1157 23.3649 24.9836 23.8719 23.2971C24.2704 21.6828 24.204 20.6613 24.204 18.8961C22.6375 18.5234 20.3826 18.117 17.7955 18.1138C15.3413 17.9307 10.859 19.0181 11.0339 23.2955C10.833 25.9923 12.8353 28.339 15.8873 28.1912ZM43.5752 31.8936C42.302 32.0092 41.7091 31.1129 41.5211 30.2279L33.4539 3.78155C33.2967 3.33502 33.193 2.87403 33.1428 2.40341C33.1131 2.20939 33.1622 2.01158 33.2795 1.85346C33.3967 1.69535 33.5725 1.58985 33.7681 1.56015C33.807 1.55372 33.4231 1.56015 37.3725 1.56015C38.7948 1.4188 39.2581 2.5287 39.4055 3.2258L45.1919 25.8462L50.5636 3.2258C50.6495 2.70859 51.0399 1.44771 52.6372 1.58103H55.417C55.7685 1.55212 57.2167 1.50072 57.4711 3.24668L62.8849 26.1562L68.8576 3.24668C68.9353 2.89652 69.2982 1.42041 70.9117 1.58103H74.1062C74.2439 1.56015 75.1024 1.45093 74.9567 2.95916C74.887 3.25631 75.5091 1.24694 66.4115 30.2488C66.2252 31.1338 65.6307 32.0301 64.3574 31.9144H61.3297C59.5575 32.0992 59.3032 30.3628 59.2757 30.1878L53.9039 8.1617L48.5938 30.1653C48.5679 30.3404 48.3135 32.0767 46.5397 31.892H43.5752V31.8936ZM87.8773 32.7979C86.9248 32.7995 82.3824 32.7497 78.5853 30.8238C78.2071 30.665 77.8849 30.3984 77.6597 30.0579C77.4344 29.7173 77.3163 29.3181 77.3201 28.9108V27.1841C77.3201 25.8269 78.3245 26.0758 78.7505 26.2381C80.377 26.8902 81.4202 27.3849 83.4176 27.78C89.3547 28.9895 91.966 27.4106 92.6059 27.0605C94.7361 25.806 94.9046 22.9357 93.4563 21.4467C91.7587 20.0349 90.9487 19.9819 84.8496 18.0737C84.098 17.8665 77.7705 15.8876 77.7559 9.66352C77.6571 5.12756 81.8139 0.639785 89.0177 0.676728C91.0702 0.675122 96.5391 1.3401 98.0197 3.18564C98.2384 3.52134 98.3469 3.91647 98.3307 4.31642V5.9403C98.3307 6.65346 98.0683 7.01004 97.5418 7.01004C96.2929 6.87191 94.0768 5.2159 89.5782 5.28336C88.4621 5.22554 83.1163 5.42953 83.356 9.29409C83.2864 12.3395 87.6667 13.4815 88.1672 13.6132C94.0735 15.3752 96.0482 15.6676 98.3923 18.3644C101.169 21.9382 99.6721 26.1224 99.097 27.2693C96.0061 33.291 88.0134 32.8011 87.8773 32.7979ZM94.3894 49.6407C83.045 57.948 66.5767 62.3699 52.5157 62.3699C33.543 62.494 15.2098 55.5768 1.1199 42.9781C0.0620835 42.032 0.995168 40.7358 2.2814 41.457C17.9113 50.322 35.6076 54.9799 53.614 54.9685C67.0607 54.897 80.3606 52.1923 92.75 47.0097C94.6583 46.2066 96.2767 48.2625 94.3894 49.6407ZM99.118 44.2936C97.6666 42.4432 89.515 43.4294 85.8653 43.8615C84.7654 43.9852 84.5791 43.0391 85.5753 42.3404C92.0664 37.8157 102.727 39.1119 103.952 40.633C105.175 42.1541 103.62 52.7455 97.5434 57.8051C96.6104 58.5873 95.7178 58.1745 96.1325 57.1465C97.4997 53.7333 100.569 46.1455 99.118 44.2936Z" fill="#737373"/>
</g>
<defs>
<clipPath id="clip0">
<rect width="104" height="62" fill="white" transform="translate(0.5 0.5)"/>
</clipPath>
</defs>
</svg>

<svg width="105" height="63" fill="none" xmlns="http://www.w3.org/2000/svg"><g clip-path="url(#clip0)"><path d="M29.887 22.989c-.117 3.638 1.717 5.249 1.762 6.272a1.302 1.302 0 01-.664 1.007l-2.073 1.44a1.736 1.736 0 01-.912.308c-.07-.004-1.327.294-3.318-4.114a12.717 12.717 0 01-4.518 3.531 12.826 12.826 0 01-5.625 1.2c-2.637.142-9.784-1.485-9.416-9.03-.258-6.148 5.517-9.967 11.49-9.645 1.15.004 3.5.06 7.612 1.008v-2.51c.436-4.25-2.381-7.547-7.259-7.052-.389.001-3.143-.08-7.426 1.624-1.192.543-1.344.453-1.741.453-1.2 0-.706-3.45-.476-3.887.844-1.028 5.809-2.948 10.681-2.92a12.522 12.522 0 019.022 2.775 11.266 11.266 0 012.3 3.915 11.2 11.2 0 01.562 4.495l-.001 11.13zm-14 5.202c5.254-.075 7.478-3.207 7.985-4.894.398-1.614.332-2.636.332-4.4-1.567-.374-3.821-.78-6.409-.783-2.454-.183-6.936.904-6.761 5.181-.201 2.697 1.801 5.044 4.853 4.896zm27.688 3.703c-1.273.115-1.866-.781-2.054-1.666L33.454 3.782a6.087 6.087 0 01-.311-1.379.736.736 0 01.136-.55.748.748 0 01.49-.293c.038-.006-.346 0 3.604 0 1.422-.141 1.885.969 2.033 1.666l5.786 22.62 5.372-22.62c.086-.517.476-1.778 2.073-1.645h2.78c.352-.029 1.8-.08 2.054 1.666l5.414 22.91 5.973-22.91c.077-.35.44-1.827 2.054-1.666h3.194c.138-.02.996-.13.85 1.378-.069.297.553-1.712-8.544 27.29-.187.885-.781 1.781-2.055 1.665H61.33c-1.773.185-2.027-1.551-2.054-1.726L53.904 8.162l-5.31 22.003c-.026.175-.28 1.912-2.054 1.727h-2.965v.002zm44.302.904c-.952.002-5.495-.048-9.292-1.974a2.07 2.07 0 01-.925-.766 2.044 2.044 0 01-.34-1.147v-1.727c0-1.357 1.005-1.108 1.43-.946 1.627.652 2.67 1.147 4.668 1.542 5.937 1.21 8.548-.37 9.188-.72 2.13-1.254 2.299-4.124.85-5.613-1.697-1.412-2.507-1.465-8.606-3.373-.752-.208-7.08-2.186-7.094-8.41C77.657 5.128 81.814.64 89.018.677c2.052-.002 7.521.663 9.002 2.509.218.335.327.73.31 1.13V5.94c0 .713-.262 1.07-.788 1.07-1.25-.138-3.465-1.794-7.964-1.727-1.116-.057-6.462.147-6.222 4.011-.07 3.045 4.31 4.188 4.811 4.32 5.906 1.761 7.881 2.054 10.225 4.75 2.777 3.574 1.28 7.758.705 8.905-3.09 6.022-11.084 5.532-11.22 5.529zM94.39 49.64c-11.345 8.308-27.813 12.73-41.874 12.73-18.973.124-37.306-6.793-51.396-19.392-1.058-.946-.125-2.242 1.161-1.521a103.933 103.933 0 0051.333 13.511A102.842 102.842 0 0092.75 47.01c1.908-.803 3.527 1.253 1.64 2.63zm4.729-5.347c-1.451-1.85-9.603-.865-13.253-.432-1.1.123-1.286-.823-.29-1.522 6.491-4.524 17.152-3.228 18.377-1.707 1.223 1.521-.332 12.112-6.409 17.172-.933.782-1.825.37-1.41-.658 1.367-3.414 4.436-11.002 2.985-12.853z" fill="#737373"/></g><defs><clipPath id="clip0"><path fill="#fff" transform="translate(.5 .5)" d="M0 0h104v62H0z"/></clipPath></defs></svg>
